storage/app/icons/phosphoricons/thin/television-thin.svg

<svg xmlns="http://www.w3.org/2000/svg" fill="currentColor" viewBox="0 0 256 256"><path d="M216 68h-78.34l41.17-41.17a4 4 0 1 0-5.66-5.66L128 66.34 82.83 21.17a4 4 0 0 0-5.66 5.66L118.34 68H40a12 12 0 0 0-12 12v120a12 12 0 0 0 12 12h176a12 12 0 0 0 12-12V80a12 12 0 0 0-12-12M36 200V80a4 4 0 0 1 4-4h108v128H40a4 4 0 0 1-4-4m184 0a4 4 0 0 1-4 4h-60V76h60a4 4 0 0 1 4 4Zm-24-84a8 8 0 1 1-8-8 8 8 0 0 1 8 8m0 48a8 8 0 1 1-8-8 8 8 0 0 1 8 8"/></svg>

<svg xmlns="http://www.w3.org/2000/svg" viewBox="0 0 256 256" fill="currentColor"><path d="M216,68H137.66l41.17-41.17a4,4,0,1,0-5.66-5.66L128,66.34,82.83,21.17a4,4,0,0,0-5.66,5.66L118.34,68H40A12,12,0,0,0,28,80V200a12,12,0,0,0,12,12H216a12,12,0,0,0,12-12V80A12,12,0,0,0,216,68ZM36,200V80a4,4,0,0,1,4-4H148V204H40A4,4,0,0,1,36,200Zm184,0a4,4,0,0,1-4,4H156V76h60a4,4,0,0,1,4,4Zm-24-84a8,8,0,1,1-8-8A8,8,0,0,1,196,116Zm0,48a8,8,0,1,1-8-8A8,8,0,0,1,196,164Z"/></svg>
